Sources/FrostedUI/Resources/Icons.xcassets/megaphone16.imageset/megaphone-16.svg

<svg width="16" height="16" viewBox="0 0 16 16" fill="none" xmlns="http://www.w3.org/2000/svg" data-fui-icon="true">
  <path
    d="M12.75 0C13.9926 0 15 1.00736 15 2.25V12.75C15 13.9926 13.9926 15 12.75 15C11.6023 15 10.6566 14.1406 10.5186 13.0303L7.5 11.9229V14.25C7.5 14.6642 7.16421 15 6.75 15C6.33579 15 6 14.6642 6 14.25V11.5C6 11.4581 6.00412 11.417 6.01074 11.377L4.26855 10.7383C3.90238 11.4848 3.13756 12 2.25 12C1.00736 12 0 10.9926 0 9.75V5.25C0 4.00736 1.00736 3 2.25 3C3.30333 3 4.18373 3.72478 4.42871 4.70215L10.5 2.47559V2.25C10.5 1.00736 11.5074 0 12.75 0ZM12.75 1.5C12.3358 1.5 12 1.83579 12 2.25V12.75C12 13.1642 12.3358 13.5 12.75 13.5C13.1642 13.5 13.5 13.1642 13.5 12.75V2.25C13.5 1.83579 13.1642 1.5 12.75 1.5ZM4.5 6.27344V9.22559L10.5 11.4258V4.07324L4.5 6.27344ZM2.25 4.5C1.83579 4.5 1.5 4.83579 1.5 5.25V9.75C1.5 10.1642 1.83579 10.5 2.25 10.5C2.66421 10.5 3 10.1642 3 9.75V5.25C3 4.83579 2.66421 4.5 2.25 4.5Z"
    fill="currentColor"
  />
</svg>

<svg xmlns="http://www.w3.org/2000/svg" width="16" height="16" fill="none" data-fui-icon="true" viewBox="0 0 16 16"><path fill="currentColor" d="M12.75 0A2.25 2.25 0 0 1 15 2.25v10.5a2.25 2.25 0 0 1-4.481.28L7.5 11.923v2.327a.75.75 0 0 1-1.5 0V11.5q0-.063.01-.123l-1.741-.639A2.247 2.247 0 0 1 0 9.75v-4.5a2.247 2.247 0 0 1 4.429-.548L10.5 2.476V2.25A2.25 2.25 0 0 1 12.75 0m0 1.5a.75.75 0 0 0-.75.75v10.5a.75.75 0 0 0 1.5 0V2.25a.75.75 0 0 0-.75-.75M4.5 6.273v2.953l6 2.2V4.073zM2.25 4.5a.75.75 0 0 0-.75.75v4.5a.75.75 0 0 0 1.5 0v-4.5a.75.75 0 0 0-.75-.75"/></svg>
